X: 83
T: Star of Munster
R:reel
M:C|
L:1/8
K:Ador
ed |:"Am"c2 Ac "G"BAGB|"Am"AGEF "G"GEDG|"Am"EAAB "(C)"cBcd|eaaf "G"gedB|
"Am"cBAc "G"BAGB|"Am"AGEF "G"GEDG|"Am"EAAB "(C)"cBcd|1 ecdB A2 ed:|2 ecdB A2 cd ||
"Am"eaag ageg|agbg agef|"G"g2 ga gd (3ddd|gaba gedg|
"Am"eaag ageg|agbg agef|"G(C)"~g3e "Am(D)"a2 ga|"G"bgaf gedB :|


